app/img/step-1/var-1.svg

<svg width="90" height="90" viewBox="0 0 90 90" fill="none" xmlns="http://www.w3.org/2000/svg">
<g clip-path="url(#clip0)">
<path d="M69.3783 85.2072C69.3148 84.8888 65.4492 65.4687 65.4067 65.2692C64.9424 63.0213 63.6845 61.2994 61.8383 60.19C60.7316 59.5224 60.1032 59.416 59.3855 59.1954C59.8899 59.3718 50.1346 55.9623 46.2036 54.5884C45.4256 54.3216 44.903 53.59 44.903 52.7675V48.731C39.854 51.2556 34.5595 51.0962 29.86 48.8027V52.7675C29.86 53.59 29.3374 54.3217 28.5594 54.5884C28.0053 54.7784 30.5665 53.9002 23.1406 56.4464H23.1355C23.1356 56.4469 23.136 56.4475 23.136 56.4475L23.1355 56.4483L15.383 59.1954C15.0251 59.3011 14.3181 59.5097 14.3631 59.4964C12.5188 60.1842 10.9195 61.4904 10.0234 63.317C9.40308 64.5752 9.58712 64.1333 6.57687 79.2443C5.46224 85.0163 5.21614 85.4368 5.35554 86.7263C5.74349 90.3308 9.45107 89.9547 9.55144 89.9984C16.6604 89.9984 38.0825 89.9984 37.4079 89.9984C37.4826 89.9984 40.6864 89.9984 40.4872 89.9984C45.4376 89.9984 62.987 89.9984 65.2161 89.9984C65.2558 89.9851 70.1055 90.3542 69.3783 85.2072Z" fill="#6C7D87"/>
<path d="M9.9176 85.2071L13.889 63.4579C13.834 63.7221 14.1838 60.5487 17.1693 58.5622C13.8351 59.7436 14.8685 59.2709 13.8435 59.7102C11.9087 60.584 10.4082 62.0687 9.66834 64.1608C9.37232 65.0011 9.56428 64.2624 6.57705 79.2441C5.46242 85.0161 5.2165 85.437 5.35572 86.7261C5.74367 90.3306 9.45125 89.9544 9.55162 89.9982C9.99354 89.9982 13.5339 89.9982 14.0794 89.9982C10.8847 89.9984 9.50434 88.1302 9.9176 85.2071Z" fill="#566A75"/>
<path d="M17.746 89.9984C15.1608 89.9984 12.183 89.9984 9.55142 89.9984C9.44648 89.9525 5.22052 90.377 5.32617 85.9716C5.34919 85.0322 5.46679 84.9927 6.57685 79.2441L6.64101 78.9219H17.746V89.9984Z" fill="#E8B181"/>
<path d="M11.0652 78.9221H6.64117L6.57701 79.2442C5.46291 85.0128 5.34935 85.0309 5.32633 85.9717C5.22103 90.3625 9.46826 89.9621 9.55158 89.9985C9.9935 89.9985 13.5339 89.9985 14.0794 89.9985C11.137 89.9985 9.79469 88.4505 9.8541 85.9717C9.86113 85.6839 9.96836 85.0822 11.0652 78.9221Z" fill="#E2A879"/>
<path d="M29.86 48.1062C29.86 59.366 29.86 46.8235 29.8602 55.692H29.8649V55.9631C29.8649 57.7647 31.0156 59.366 32.7238 59.938C35.4653 60.8559 38.9851 60.9605 42.039 59.938C43.7474 59.366 44.8979 57.7648 44.8979 55.9631V55.692H44.9026C44.9026 53.9274 44.9028 49.0501 44.9028 48.1062C40.0293 50.7048 34.5338 50.5984 29.86 48.1062Z" fill="#E8B181"/>
<path d="M34.3937 57.1974H34.3879C34.3875 47.7705 34.3877 50.9115 34.3875 50.2532C32.8248 49.94 31.301 49.4021 29.8597 48.6335C29.8597 59.8934 29.8597 46.8235 29.8599 55.692H29.8647V55.9631C29.8647 57.7647 31.0153 59.366 32.7236 59.938C33.5684 60.2209 34.4605 60.4253 35.3866 60.5434C34.2353 58.98 34.4112 57.3171 34.3937 57.1974Z" fill="#E2A879"/>
<path d="M17.746 74.4788C16.9958 74.4788 16.3876 75.0868 16.3876 75.8373V89.9984C17.3298 89.9984 18.093 89.9984 19.1043 89.9984V75.8373C19.1045 75.0868 18.4962 74.4788 17.746 74.4788Z" fill="#566A75"/>
<path d="M81.3574 89.9984H37.3813C35.5465 89.9984 34.059 88.5109 34.059 86.6761C34.059 85.6246 34.9116 84.7721 35.9631 84.7721H82.7756C83.8271 84.7721 84.6796 85.6246 84.6796 86.6761C84.6796 88.5109 83.1922 89.9984 81.3574 89.9984Z" fill="#C6C6C6"/>
<path d="M42.6164 86.6762C42.6164 85.6246 43.4689 84.7721 44.5205 84.7721H35.9631C34.9116 84.7721 34.059 85.6246 34.059 86.6762V86.6763C34.059 88.5111 35.5465 89.9986 37.3813 89.9986H45.9385C44.1037 89.9984 42.6164 88.5109 42.6164 86.6762Z" fill="#B7B7B7"/>
<path d="M78.4768 55.6921H40.2618C39.0665 55.6921 38.0884 56.6701 38.0884 57.8654V82.5987C38.0884 83.7941 39.0665 84.7721 40.2618 84.7721H78.4768C79.6721 84.7721 80.6502 83.7941 80.6502 82.5987V57.8654C80.6502 56.6701 79.6721 55.6921 78.4768 55.6921Z" fill="#EDEDED"/>
<path d="M42.6164 82.5987V57.8654C42.6164 56.6701 43.5944 55.6921 44.7897 55.6921H40.262C39.0667 55.6921 38.0886 56.6701 38.0886 57.8654V82.5987C38.0886 83.7941 39.0667 84.7721 40.262 84.7721H44.7897C43.5944 84.7721 42.6164 83.7941 42.6164 82.5987Z" fill="#DADADA"/>
<path d="M59.3701 73.3709C61.1039 73.3709 62.5094 71.9654 62.5094 70.2316C62.5094 68.4979 61.1039 67.0923 59.3701 67.0923C57.6363 67.0923 56.2308 68.4979 56.2308 70.2316C56.2308 71.9654 57.6363 73.3709 59.3701 73.3709Z" fill="#DADADA"/>
<path d="M59.3708 67.0953C56.9772 67.0915 55.4352 69.6967 56.6506 71.8017C57.8665 73.9075 60.8932 73.8731 62.0866 71.7992C59.6719 71.7959 58.1642 69.1919 59.3708 67.0953Z" fill="#C6C6C6"/>
<path d="M36.9719 0.0214228C25.2721 0.0660713 15.3944 9.61732 15.3944 21.7519V29.9872H58.8614C58.8614 22.183 58.8614 24.6487 58.8614 17.6669C58.8614 9.2517 53.6841 7.31318 53.6841 7.31318C47.2456 -0.625628 36.9805 0.021247 36.9805 0.021247" fill="#4C4846"/>
<path d="M39.9079 0.151146C26.6481 -1.35829 15.8575 8.64982 15.4128 20.8954C15.3785 21.7759 15.4016 21.4465 15.3944 29.9872H20.5716V21.7519C20.5716 10.5103 29.0812 1.33943 39.9079 0.151146Z" fill="#3D3938"/>
<path d="M20.7475 27.4011C18.0215 26.4298 15.0622 28.2363 15.0622 30.872C15.0622 33.5069 18.0211 35.3143 20.7475 34.3428V27.4011Z" fill="#E8B181"/>
<path d="M53.5084 27.4011C56.2344 26.4298 59.1937 28.2363 59.1937 30.872C59.1937 33.5069 56.2347 35.3143 53.5084 34.3428V27.4011Z" fill="#E8B181"/>
<path d="M15.4603 29.2761C13.8679 32.299 17.2206 35.5996 20.7474 34.343V31.1509C18.6906 31.8836 16.3909 31.043 15.4603 29.2761Z" fill="#E2A879"/>
<path d="M53.5083 31.1509V34.343C57.035 35.5996 60.3877 32.2992 58.7955 29.2761C58.1296 30.5406 55.5658 31.884 53.5083 31.1509Z" fill="#E2A879"/>
<path d="M52.937 20.5237C53.3592 20.5645 53.6841 20.9148 53.6841 21.339C53.6841 35.2782 53.6932 34.2258 53.6607 34.874C53.4459 39.1136 51.6327 43.0065 48.6836 45.8838C38.3493 55.96 21.1044 48.8141 20.5857 34.6802C20.5615 34.0571 20.5716 26.8374 20.5716 26.8578C20.5716 23.6116 23.4525 21.1349 26.6655 21.5988C31.7257 22.3291 39.1118 22.0454 45.5567 16.5364C46.2188 15.9704 47.2239 16.1532 47.6469 16.9149C48.4454 18.353 50.0333 20.2435 52.937 20.5237Z" fill="#F1C596"/>
<path d="M25.1158 34.6802C25.095 34.1459 25.0994 24.3659 25.1012 21.6031C22.574 21.9823 20.5718 24.152 20.5718 26.8578C20.5718 26.8374 20.5616 34.0571 20.5859 34.6802C20.9682 45.1013 30.4434 51.7217 39.5372 50.4431C32.0704 49.4107 25.4345 43.3659 25.1158 34.6802Z" fill="#E8B181"/>
</g>
<defs>
<clipPath id="clip0">
<rect width="90" height="90" fill="white"/>
</clipPath>
</defs>
</svg>

<svg width="90" height="90" fill="none" xmlns="http://www.w3.org/2000/svg"><g clip-path="url(#clip0)"><path d="M69.378 85.207c-.063-.318-3.929-19.738-3.971-19.938-.465-2.248-1.722-3.97-3.569-5.079-1.106-.668-1.735-.774-2.453-.995l-13.181-4.607a1.925 1.925 0 01-1.301-1.82V48.73c-5.049 2.525-10.343 2.365-15.043.072v3.965c0 .822-.523 1.554-1.3 1.82l-5.42 1.858h-.005l.001.002-7.753 2.747-1.02.301c-1.844.688-3.444 1.994-4.34 3.821-.62 1.258-.436.816-3.446 15.927-1.115 5.772-1.36 6.193-1.221 7.482.387 3.605 4.095 3.229 4.195 3.272h55.665c.04-.013 4.89.356 4.162-4.79z" fill="#6C7D87"/><path d="M9.918 85.207l3.971-21.75c-.055.265.295-2.908 3.28-4.895-3.334 1.182-2.3.709-3.325 1.148-1.935.874-3.436 2.359-4.176 4.45-.296.841-.104.102-3.09 15.084-1.116 5.772-1.362 6.193-1.222 7.482.388 3.605 4.095 3.228 4.196 3.272h4.527c-3.194 0-4.575-1.868-4.161-4.79z" fill="#566A75"/><path d="M17.746 89.998H9.551c-.105-.046-4.33.379-4.225-4.026.023-.94.14-.98 1.25-6.728l.065-.322h11.105v11.076z" fill="#E8B181"/><path d="M11.065 78.922H6.641l-.064.322c-1.114 5.769-1.228 5.787-1.25 6.728-.106 4.39 4.141 3.99 4.225 4.027h4.527c-2.942 0-4.284-1.548-4.225-4.027.007-.288.114-.89 1.211-7.05z" fill="#E2A879"/><path d="M29.86 48.106v7.586h.005v.271a4.191 4.191 0 002.859 3.975c2.741.918 6.261 1.023 9.315 0a4.191 4.191 0 002.859-3.975v-.271h.005v-7.586c-4.874 2.599-10.37 2.492-15.043 0z" fill="#E8B181"/><path d="M34.394 57.197h-.006v-6.944a16.499 16.499 0 01-4.528-1.62v7.059h.005v.271a4.191 4.191 0 002.859 3.975c.844.283 1.737.487 2.663.605-1.152-1.563-.976-3.226-.993-3.346z" fill="#E2A879"/><path d="M17.746 74.479c-.75 0-1.358.608-1.358 1.358v14.161h2.716v-14.16c0-.751-.608-1.36-1.358-1.36z" fill="#566A75"/><path d="M81.357 89.998H37.381a3.322 3.322 0 01-3.322-3.322c0-1.051.853-1.904 1.904-1.904h46.813c1.051 0 1.904.853 1.904 1.904a3.322 3.322 0 01-3.323 3.322z" fill="#C6C6C6"/><path d="M42.616 86.676c0-1.051.853-1.904 1.904-1.904h-8.557a1.904 1.904 0 00-1.904 1.904A3.322 3.322 0 0037.381 90h8.557a3.322 3.322 0 01-3.322-3.323z" fill="#B7B7B7"/><path d="M78.477 55.692H40.262a2.18 2.18 0 00-2.174 2.173V82.6a2.18 2.18 0 002.174 2.173h38.215A2.18 2.18 0 0080.65 82.6V57.865a2.18 2.18 0 00-2.173-2.173z" fill="#EDEDED"/><path d="M42.616 82.599V57.865a2.18 2.18 0 012.174-2.173h-4.528a2.18 2.18 0 00-2.173 2.173V82.6a2.18 2.18 0 002.173 2.173h4.528a2.18 2.18 0 01-2.174-2.173zM59.37 73.37a3.14 3.14 0 100-6.278 3.14 3.14 0 000 6.279z" fill="#DADADA"/><path d="M59.37 67.095c-2.393-.004-3.935 2.602-2.72 4.707 1.217 2.105 4.243 2.071 5.437-.003-2.415-.003-3.923-2.607-2.716-4.704z" fill="#C6C6C6"/><path d="M36.972.021c-11.7.045-21.578 9.596-21.578 21.73v8.236h43.467v-12.32c0-8.415-5.177-10.354-5.177-10.354C47.246-.626 36.981.021 36.981.021" fill="#4C4846"/><path d="M39.908.151c-13.26-1.51-24.05 8.499-24.495 20.744-.034.88-.011.552-.019 9.092h5.178v-8.235c0-11.242 8.51-20.413 19.336-21.6z" fill="#3D3938"/><path d="M20.747 27.401c-2.726-.971-5.685.835-5.685 3.471 0 2.635 2.96 4.442 5.685 3.47v-6.94zM53.508 27.401c2.726-.971 5.686.835 5.686 3.471 0 2.635-2.96 4.442-5.686 3.47v-6.94z" fill="#E8B181"/><path d="M15.46 29.276c-1.592 3.023 1.76 6.324 5.287 5.067v-3.192c-2.056.733-4.356-.108-5.287-1.875zM53.508 31.15v3.193c3.527 1.257 6.88-2.044 5.287-5.067-.665 1.265-3.23 2.608-5.287 1.875z" fill="#E2A879"/><path d="M52.937 20.524c.422.04.747.39.747.815 0 13.94.01 12.887-.023 13.535a16.512 16.512 0 01-4.977 11.01c-10.335 10.076-27.58 2.93-28.098-11.204-.024-.623-.014-7.843-.014-7.822 0-3.246 2.88-5.723 6.094-5.26 5.06.731 12.446.447 18.89-5.062a1.368 1.368 0 012.09.379c.8 1.438 2.387 3.329 5.291 3.609z" fill="#F1C596"/><path d="M25.116 34.68c-.021-.534-.017-10.314-.015-13.077-2.527.38-4.53 2.549-4.53 5.255 0-.02-.01 7.2.015 7.822.382 10.421 9.857 17.042 18.951 15.763-7.467-1.032-14.102-7.077-14.421-15.763z" fill="#E8B181"/></g><defs><clipPath id="clip0"><path fill="#fff" d="M0 0h90v90H0z"/></clipPath></defs></svg>
